packages/core/src/svgs/wgc.svg

<svg width="24" height="24" viewBox="0 0 24 24" fill="none" xmlns="http://www.w3.org/2000/svg">
<g clip-path="url(#clip0_31_20683)">
<path d="M0 0H24V24H0V0Z" fill="#F0F3FA"/>
<path d="M18.4799 8.72548L18.2485 8.71263C18.2304 8.71237 18.2126 8.70752 18.1969 8.69852C18.1811 8.68953 18.1679 8.67668 18.1585 8.6612C17.6769 7.88428 17.0391 7.21587 16.2857 6.69834C14.9 5.73375 13.2103 5.30714 11.5328 5.49834C10.2642 5.64406 9.11994 6.09834 8.10851 6.85691C7.41062 7.37321 6.82397 8.0249 6.38362 8.77304C5.94328 9.52119 5.65828 10.3504 5.54566 11.2112C5.50602 11.6171 5.49456 12.0252 5.51137 12.4326C5.61957 14.0059 6.30842 15.4829 7.44423 16.5769C8.10802 17.228 8.89678 17.738 9.76298 18.0761C10.6292 18.4142 11.5549 18.5734 12.4842 18.5441C13.1828 18.5098 13.7957 18.4155 14.3271 18.2483C15.9169 17.7743 17.2792 16.7366 18.1585 15.3298C18.1799 15.2955 18.2399 15.2869 18.3385 15.2998H18.3428C18.3685 15.2998 18.4071 15.2998 18.4499 15.2783L18.4799 15.2698C18.3214 15.6383 18.0385 16.0498 17.6228 16.4998C16.9884 17.2141 16.2141 17.7907 15.348 18.1939C14.4818 18.5972 13.5422 18.8184 12.5871 18.8441C12.3074 18.869 12.0259 18.8647 11.7471 18.8312C11.5799 18.8226 11.4557 18.8098 11.3699 18.8012C9.88916 18.6391 8.49879 18.0085 7.40137 17.0012C7.1955 16.8323 7.00608 16.6444 6.83566 16.4398C6.19884 15.729 5.72199 14.8898 5.43734 13.9789C5.15269 13.068 5.06686 12.1067 5.18566 11.1598C5.3935 9.57512 6.15931 8.11642 7.34566 7.04548C8.65249 5.84862 10.3524 5.17171 12.1242 5.14263C13.9788 5.11164 15.7764 5.78382 17.1557 7.02406C17.4514 7.29406 17.7385 7.60691 18.0128 7.95834C18.2099 8.2112 18.3642 8.46406 18.4842 8.72548H18.4799Z" fill="#1483CB"/>
<path d="M18.4801 8.72593L18.5701 8.99593C18.5744 9.00878 18.5701 9.01735 18.553 9.01735H17.6187C17.6099 9.01707 17.6014 9.01455 17.5939 9.01005C17.5864 9.00555 17.5802 8.99922 17.5758 8.99164C17.0721 8.16539 16.3749 7.47409 15.5444 6.97735C14.3622 6.26987 12.9824 5.96511 11.6122 6.10885C10.242 6.25259 8.95545 6.83708 7.94583 7.7745C7.33579 8.3411 6.85503 9.03252 6.53628 9.80167C6.21753 10.5708 6.06827 11.3996 6.09868 12.2316C6.16035 13.6515 6.74322 14.9988 7.73583 16.0159C8.22388 16.5251 8.79668 16.9457 9.42868 17.2588C10.5136 17.8005 11.7308 18.0206 12.9367 17.893C14.1426 17.7654 15.2869 17.2955 16.2344 16.5388C16.7665 16.1026 17.2227 15.5812 17.5844 14.9959C17.6089 14.9862 17.6352 14.9818 17.6615 14.9831H18.553C18.5701 14.9831 18.5744 14.9916 18.5701 15.0045L18.4844 15.2702L18.4544 15.2788C18.4195 15.2946 18.3813 15.3019 18.343 15.3002C18.2444 15.2831 18.1844 15.2959 18.163 15.3302C17.5612 16.2976 16.7266 17.0987 15.7353 17.6602C14.744 18.2217 13.6278 18.5258 12.4887 18.5445C12.2671 18.5582 12.0447 18.551 11.8244 18.5231C10.8439 18.4594 9.88847 18.1866 9.02213 17.7231C8.15579 17.2597 7.39865 16.6162 6.80154 15.8359C5.79762 14.5165 5.34859 12.8573 5.55011 11.2116C5.66326 10.3505 5.94892 9.52109 6.39002 8.77293C6.83111 8.02476 7.41857 7.37325 8.11726 6.85735C9.57405 5.75559 11.4069 5.2735 13.2173 5.51593C14.6391 5.70157 15.9685 6.32288 17.023 7.2945C17.4618 7.69824 17.8438 8.15958 18.1587 8.66593C18.1801 8.69593 18.2101 8.71307 18.2444 8.71735L18.4801 8.73021V8.72593Z" fill="#21A2DC"/>
<path d="M16.6758 8.10446C16.0974 8.12171 15.5187 8.12742 14.9401 8.12161C14.773 8.12161 14.6572 8.10018 14.5844 8.06161C13.4879 7.4865 12.2112 7.35898 11.0227 7.70586C9.83417 8.05275 8.82647 8.84701 8.21152 9.92161C7.76319 10.7428 7.59185 11.6867 7.72295 12.613C7.82342 13.2848 8.07553 13.925 8.46017 14.4848C8.84482 15.0447 9.35189 15.5097 9.94295 15.8445C10.8108 16.3488 11.8157 16.5663 12.8144 16.4659C13.897 16.3663 14.9124 15.8972 15.6901 15.1373C15.6901 15.1202 15.6772 15.1116 15.6601 15.1116C15.1451 15.1494 14.6273 15.106 14.1258 14.983L14.4815 14.7602C14.4968 14.7492 14.5143 14.7416 14.5328 14.7379C14.5513 14.7342 14.5703 14.7345 14.5887 14.7387C14.7301 14.7602 14.8758 14.773 15.0215 14.7687C15.3644 14.7602 15.7158 14.7259 16.0672 14.6616C15.9944 14.8116 15.8958 14.9402 15.7672 15.0473C15.7587 15.0516 15.7587 15.0602 15.7587 15.073L15.7801 15.0902L15.9087 15.0859C16.5944 15.0002 17.1815 14.8116 17.6787 14.5202C17.2372 15.3749 16.5889 16.1056 15.7929 16.6459C14.5965 17.4656 13.1463 17.8305 11.7044 17.6745C10.2472 17.503 9.01724 16.9116 8.01866 15.9002C7.12988 15.0125 6.57438 13.8455 6.44581 12.5959C6.36438 11.8802 6.42438 11.1773 6.62581 10.4788C7.00117 9.17446 7.83328 8.04876 8.97009 7.30732C10.1954 6.4978 11.6703 6.15418 13.1272 6.33875C14.2929 6.50161 15.3258 6.94304 16.2215 7.67589C16.3805 7.81057 16.5321 7.95363 16.6758 8.10446Z" fill="#86B22B"/>
<path d="M16.6756 8.10447C16.9328 8.35733 17.1642 8.64447 17.3828 8.97447C17.4042 9.00876 17.3956 9.0259 17.3528 9.0259C16.3742 9.02166 15.3956 9.02166 14.417 9.0259C14.2413 9.0259 14.117 9.01304 14.0485 8.97876C13.6784 8.7905 13.2805 8.66315 12.8699 8.60162C12.6283 8.57123 12.3845 8.56262 12.1413 8.5759C12.047 8.5759 11.9528 8.58019 11.8542 8.59304C11.3252 8.66836 10.8182 8.85536 10.367 9.14162C9.88042 9.44976 9.47927 9.87554 9.20063 10.3796C8.92199 10.8837 8.77484 11.4499 8.77276 12.0259C8.7709 12.882 9.1066 13.7043 9.70705 14.3145C10.3034 14.9485 11.1115 15.3419 11.9785 15.4202C12.7222 15.5014 13.4728 15.3486 14.1256 14.983C14.6356 15.1073 15.1456 15.1502 15.6599 15.1116C15.677 15.1116 15.6899 15.1202 15.6899 15.1373C15.6899 15.1502 15.6856 15.1588 15.677 15.1673L15.4628 15.3388C14.5372 16.1356 13.3395 16.544 12.1199 16.4788C11.3532 16.4524 10.6051 16.2359 9.94276 15.8488C9.28454 15.4761 8.73167 14.9424 8.3359 14.2978C7.94014 13.6532 7.71443 12.9187 7.6799 12.163C7.65419 11.3573 7.83419 10.6116 8.21133 9.92162C8.66983 9.08191 9.38039 8.40734 10.2428 7.99304C10.8294 7.70027 11.473 7.53937 12.1285 7.52161C12.9809 7.4807 13.8288 7.66862 14.5842 8.0659C14.657 8.10019 14.7728 8.12162 14.9399 8.12162H14.9828C15.5913 8.1259 16.1528 8.12162 16.6756 8.10447Z" fill="#A3C844"/>
<path d="M18.1285 13.2427C18.1285 13.1699 18.1157 13.1013 18.0857 13.037C17.8745 12.601 17.5207 12.2502 17.0828 12.0427C16.7848 11.8975 16.4672 11.7964 16.14 11.7427C15.4329 11.6153 14.7109 11.5922 13.9971 11.6742C13.8094 11.6984 13.6233 11.7342 13.44 11.7813C13.44 11.7899 13.4485 11.7942 13.4571 11.7942L13.5343 11.8156L13.6114 11.837C14.4171 11.9913 15.1971 12.1627 15.9428 12.3642C16.5077 12.4814 17.014 12.7921 17.3743 13.2427C17.5049 13.4391 17.6006 13.6566 17.6571 13.8856C17.6485 13.9927 17.5585 14.0913 17.3828 14.1856C17.1128 14.327 16.8171 14.4427 16.4957 14.537L16.0671 14.6613C15.7157 14.7213 15.3685 14.7599 15.0214 14.7684C14.8765 14.7723 14.7315 14.7622 14.5885 14.7384C14.5702 14.7342 14.5511 14.7339 14.5327 14.7376C14.5142 14.7413 14.4967 14.7489 14.4814 14.7599C14.4728 14.747 14.4557 14.7384 14.4343 14.7342C13.7914 14.6527 13.2128 14.4599 12.7071 14.1513C12.1852 13.8431 11.757 13.3986 11.4685 12.8656C11.0828 12.137 10.8385 11.3656 10.74 10.5427C10.7312 10.4601 10.7312 10.3768 10.74 10.2942C10.7443 10.2642 10.7657 10.247 10.7957 10.247C10.8471 10.247 10.89 10.247 10.9285 10.2642C11.5971 10.487 12.2828 10.5813 12.9857 10.5427C13.3374 10.5214 13.6878 10.4828 14.0357 10.427L14.2543 10.3884C14.9228 10.277 15.4243 10.2084 15.7585 10.1827C16.1468 10.1494 16.5379 10.1813 16.9157 10.277C17.3058 10.3626 17.6678 10.546 17.9677 10.8099C18.2676 11.0737 18.4955 11.4095 18.63 11.7856C18.8185 12.2699 18.8871 12.8956 18.8443 13.6627C18.8228 14.0313 18.7543 14.3999 18.63 14.777C18.63 14.7984 18.6128 14.8113 18.5914 14.8113L18.1714 14.8027C18.1671 14.8027 18.1628 14.8027 18.1628 14.7942C18.2914 14.1813 18.2914 13.667 18.1543 13.2513C18.1543 13.2427 18.15 13.2384 18.1414 13.2384H18.1285V13.2427ZM12.7328 11.7942L13.14 11.6956C13.23 11.6742 13.3243 11.6527 13.4228 11.6184C13.5171 11.5842 13.6157 11.5584 13.7228 11.5413C14.0743 11.4813 14.3828 11.4513 14.6571 11.4556L15.3814 11.4684C15.6514 11.477 15.9557 11.5113 16.2985 11.5756C16.7271 11.657 17.1043 11.8027 17.4343 12.0127C17.7028 12.1733 17.9312 12.3931 18.102 12.6552C18.2728 12.9174 18.3815 13.2151 18.42 13.5256L18.4414 13.6799C18.4585 13.757 18.4714 13.8342 18.4714 13.9113C18.4714 14.0013 18.4628 14.0827 18.45 14.1684C18.4371 14.2542 18.4243 14.3399 18.42 14.4213C18.42 14.5027 18.4071 14.5842 18.3985 14.6699C18.3985 14.6913 18.4071 14.6999 18.4285 14.6999H18.4543C18.48 14.687 18.4971 14.6699 18.5057 14.6399C18.5614 14.3999 18.6085 14.1813 18.6428 13.9884C18.6685 13.847 18.6814 13.7142 18.6771 13.5856V13.3456C18.6771 12.9984 18.6557 12.7327 18.6257 12.557C18.5798 12.2326 18.4874 11.9165 18.3514 11.6184C18.198 11.3185 17.9781 11.0575 17.7085 10.8555C17.4389 10.6534 17.1267 10.5157 16.7957 10.4527C16.5985 10.4099 16.44 10.3884 16.3114 10.3756C15.8162 10.3423 15.3187 10.3769 14.8328 10.4784C14.6957 10.4999 14.5585 10.5213 14.4171 10.5513C14.1 10.6113 13.7614 10.6627 13.4014 10.7013C13.26 10.7184 13.0457 10.727 12.7671 10.727H12.4843C12.2828 10.7313 12.0771 10.7184 11.8585 10.6842C11.6513 10.6545 11.4454 10.6159 11.2414 10.5684C11.1557 10.5513 11.0743 10.5256 10.9971 10.487C10.9671 10.4784 10.9543 10.487 10.9543 10.5127C10.9414 10.6284 10.9457 10.7356 10.9671 10.8299L10.9971 10.9584C11.07 11.3031 11.1659 11.6424 11.2843 11.9742C11.4132 12.3127 11.5709 12.6396 11.7557 12.9513L11.8328 13.0799C11.88 13.157 11.9357 13.2299 12 13.2942L12.3428 13.637C12.4243 13.7184 12.5143 13.7913 12.6257 13.8642L12.9771 14.0784C13.2771 14.2413 13.5943 14.3656 13.92 14.4384C14.1738 14.4993 14.4316 14.5423 14.6914 14.567C14.9509 14.5915 15.2122 14.5901 15.4714 14.5627C16.1313 14.4985 16.7736 14.3125 17.3657 14.0142C17.4385 13.9756 17.4643 13.9199 17.4428 13.847C17.3563 13.5173 17.154 13.2298 16.8728 13.037C16.6664 12.8724 16.4329 12.7448 16.1828 12.6599C15.9471 12.5742 15.7843 12.5227 15.7028 12.5013C15.1104 12.3515 14.5145 12.2158 13.9157 12.0942L13.3243 11.9656C13.1314 11.9142 12.9385 11.8713 12.7371 11.8284C12.6857 11.8199 12.6857 11.807 12.7371 11.7942H12.7328Z" fill="#A3C844"/>
<path d="M12.7328 11.7944C12.6899 11.8072 12.6899 11.8201 12.7328 11.8286L13.3242 11.9615C13.5385 12.0129 13.7399 12.0601 13.9156 12.0944C14.5156 12.2186 15.1071 12.3515 15.7028 12.5015C15.7885 12.5229 15.9471 12.5786 16.1828 12.6601C16.6247 12.8122 17.0092 13.0965 17.2842 13.4744C17.3485 13.5772 17.3999 13.7015 17.4428 13.8472C17.4642 13.9201 17.4385 13.9758 17.3656 14.0144C16.7696 14.3142 16.1228 14.5002 15.4585 14.5629C15.2442 14.5886 14.9871 14.5929 14.6871 14.5672C14.4856 14.5501 14.2285 14.5072 13.9156 14.4386C13.4533 14.334 13.0164 14.1389 12.6299 13.8644C12.5267 13.7986 12.4305 13.7225 12.3428 13.6372L11.9999 13.2944C11.9356 13.2301 11.8794 13.1582 11.8328 13.0801L11.7556 12.9515L11.6442 12.7715C11.3375 12.2037 11.1193 11.5923 10.9971 10.9586L10.9671 10.8301C10.9452 10.7259 10.9394 10.6189 10.9499 10.5129C10.9499 10.4872 10.9671 10.4786 10.9928 10.4872C11.0785 10.5258 11.1599 10.5515 11.2414 10.5729C11.4299 10.6158 11.6356 10.6544 11.8585 10.6844C12.0728 10.7186 12.2871 10.7315 12.4842 10.7272H12.7671C13.0456 10.7272 13.2599 10.7186 13.4014 10.7015C13.7614 10.6629 14.0999 10.6158 14.4171 10.5515C14.7503 10.4837 15.0863 10.4308 15.4242 10.3929C15.719 10.3631 16.0157 10.3573 16.3114 10.3758C16.4399 10.3886 16.5985 10.4144 16.7956 10.4529C17.1256 10.5186 17.4367 10.6574 17.7059 10.8591C17.9751 11.0608 18.1957 11.3204 18.3514 11.6186C18.4628 11.8329 18.5528 12.1458 18.6256 12.5572C18.6556 12.7329 18.6728 12.9986 18.6771 13.3458V13.5858C18.6771 13.7144 18.6685 13.8472 18.6428 13.9886C18.6085 14.1815 18.5614 14.4001 18.5056 14.6401C18.5026 14.653 18.4963 14.6649 18.4872 14.6747C18.4782 14.6844 18.4669 14.6917 18.4542 14.6958C18.446 14.6987 18.4373 14.7001 18.4285 14.7001C18.4071 14.7001 18.3985 14.6915 18.3985 14.6701L18.4199 14.4215C18.4242 14.3401 18.4371 14.2586 18.4499 14.1644C18.4874 13.9505 18.4772 13.731 18.4199 13.5215L18.3942 13.3586C18.3365 13.0805 18.2217 12.8173 18.0572 12.5857C17.8928 12.3541 17.6821 12.1591 17.4385 12.0129C17.0905 11.7936 16.7034 11.6437 16.2985 11.5715C15.9556 11.5072 15.6514 11.4729 15.3814 11.4644L14.6571 11.4472C14.3828 11.4472 14.0742 11.4772 13.7228 11.5329C13.6156 11.5544 13.5171 11.5801 13.4228 11.6144L13.1399 11.6915L12.7328 11.7901V11.7944Z" fill="#AFD834"/>
<path d="M18.1286 13.2429C18.1286 13.2643 18.1286 13.2857 18.12 13.3114C18.0686 13.5472 17.9915 13.7829 17.9058 14.0057C17.8447 13.9521 17.8001 13.8823 17.7772 13.8043C17.7513 13.7315 17.7052 13.6676 17.6443 13.62C17.6315 13.6114 17.6186 13.6072 17.61 13.6114C17.5972 13.6114 17.5929 13.6286 17.5886 13.65L17.5586 13.5814C17.4858 13.4272 17.4301 13.3114 17.3743 13.2429C17.0141 12.7923 16.5078 12.4815 15.9429 12.3643C15.1469 12.1524 14.3436 11.9695 13.5343 11.8157C13.509 11.8074 13.4832 11.8002 13.4572 11.7943C13.4486 11.7943 13.4443 11.79 13.4443 11.7814V11.7729L13.4529 11.7643L13.6672 11.7257L14.0015 11.6743C14.7155 11.5937 15.4375 11.6183 16.1443 11.7472C16.5043 11.8114 16.8215 11.91 17.0872 12.0472C17.5211 12.2551 17.8717 12.6041 18.0815 13.0372C18.1158 13.1014 18.1286 13.17 18.1286 13.2386V13.2429Z" fill="#86B22B"/>
<path d="M17.9014 14.0055L17.6785 14.5198C17.0946 14.8454 16.4467 15.0399 15.78 15.0898C15.775 15.0899 15.7701 15.0882 15.7662 15.0851C15.7622 15.082 15.7595 15.0776 15.7585 15.0726C15.7585 15.0598 15.7585 15.0512 15.7671 15.0469C15.8957 14.9398 15.9943 14.8112 16.0671 14.6612L16.4957 14.5369C16.8171 14.4469 17.1128 14.3269 17.3828 14.1855C17.5543 14.0912 17.6485 13.9926 17.6571 13.8855C17.6571 13.8341 17.64 13.7569 17.5885 13.6498C17.5885 13.6284 17.5971 13.6155 17.61 13.6069C17.6185 13.6069 17.6314 13.6069 17.6443 13.6198C17.7085 13.6755 17.7514 13.7355 17.7728 13.8041C17.8071 13.8898 17.8457 13.9584 17.9014 14.0055Z" fill="#619614"/>
</g>
<defs>
<clipPath id="clip0_31_20683">
<rect width="24" height="24" fill="white"/>
</clipPath>
</defs>
</svg>

<svg xmlns="http://www.w3.org/2000/svg" width="24" height="24" fill="none" viewBox="0 0 24 24"><g clip-path="url(#a)"><path fill="#F0F3FA" d="M0 0h24v24H0z"/><path fill="#1483CB" d="m18.48 8.725-.232-.012a.11.11 0 0 1-.09-.052 6.6 6.6 0 0 0-1.872-1.963 6.94 6.94 0 0 0-4.753-1.2 6.93 6.93 0 0 0-3.424 1.359 6.46 6.46 0 0 0-2.563 4.354q-.06.61-.035 1.222a6.36 6.36 0 0 0 1.933 4.144 6.89 6.89 0 0 0 5.04 1.967c.699-.034 1.312-.128 1.843-.296a6.8 6.8 0 0 0 3.832-2.918q.03-.05.18-.03h.004c.026 0 .064 0 .107-.022l.03-.008q-.236.553-.857 1.23a6.99 6.99 0 0 1-5.036 2.344q-.42.037-.84-.013c-.167-.008-.291-.021-.377-.03a7 7 0 0 1-3.969-1.8 4.2 4.2 0 0 1-.565-.561 6.67 6.67 0 0 1-1.65-5.28 6.72 6.72 0 0 1 2.16-4.115 7.25 7.25 0 0 1 4.778-1.902 7.34 7.34 0 0 1 5.032 1.881q.444.406.857.934c.197.253.351.506.471.767z"/><path fill="#21A2DC" d="m18.48 8.726.09.27q.007.02-.017.021h-.934a.05.05 0 0 1-.043-.025 5.97 5.97 0 0 0-2.032-2.015 6.364 6.364 0 0 0-7.598.797 5.8 5.8 0 0 0-1.847 4.458 5.78 5.78 0 0 0 1.637 3.784c.488.51 1.06.93 1.693 1.243a6.36 6.36 0 0 0 6.805-.72 6.2 6.2 0 0 0 1.35-1.543.2.2 0 0 1 .078-.013h.891q.024.002.017.021l-.086.266-.03.009a.24.24 0 0 1-.111.021c-.099-.017-.159-.004-.18.03a6.82 6.82 0 0 1-5.674 3.214 3.6 3.6 0 0 1-.665-.02 6.89 6.89 0 0 1-5.022-2.688 6.36 6.36 0 0 1-1.252-4.624 6.46 6.46 0 0 1 2.567-4.355 6.93 6.93 0 0 1 5.1-1.341 6.94 6.94 0 0 1 3.806 1.779 6.6 6.6 0 0 1 1.136 1.37q.033.046.085.052l.236.013z"/><path fill="#86B22B" d="M16.676 8.104q-.868.026-1.736.018c-.167 0-.283-.022-.356-.06a4.783 4.783 0 0 0-6.372 1.86 4.35 4.35 0 0 0-.489 2.691 4.47 4.47 0 0 0 2.22 3.232 4.77 4.77 0 0 0 2.871.62 4.74 4.74 0 0 0 2.876-1.328c0-.017-.013-.025-.03-.025a5 5 0 0 1-1.534-.129l.356-.223a.13.13 0 0 1 .107-.021c.141.021.287.034.432.03a7 7 0 0 0 1.046-.107q-.108.225-.3.385c-.008.005-.008.013-.008.026l.021.017.129-.004c.685-.086 1.272-.274 1.77-.566a5.8 5.8 0 0 1-1.886 2.126 6.08 6.08 0 0 1-4.089 1.028Q9.517 17.418 8.02 15.9a5.46 5.46 0 0 1-1.573-3.304 5.4 5.4 0 0 1 .18-2.117A5.65 5.65 0 0 1 8.97 7.307a6.14 6.14 0 0 1 4.157-.968 6.13 6.13 0 0 1 3.094 1.337q.24.203.455.428"/><path fill="#A3C844" d="M16.676 8.104c.257.253.488.54.707.87q.033.052-.03.052-1.468-.006-2.936 0-.265.002-.368-.047a3.9 3.9 0 0 0-1.18-.377 4 4 0 0 0-.728-.026q-.14-.001-.287.017a3.8 3.8 0 0 0-1.487.549 3.43 3.43 0 0 0-1.594 2.884 3.25 3.25 0 0 0 .934 2.289 3.56 3.56 0 0 0 2.271 1.105 3.6 3.6 0 0 0 2.148-.437q.764.186 1.534.129c.017 0 .03.008.03.025a.04.04 0 0 1-.013.03l-.214.172a4.74 4.74 0 0 1-3.343 1.14 4.6 4.6 0 0 1-2.177-.63 4.47 4.47 0 0 1-2.263-3.686 4.3 4.3 0 0 1 .531-2.241 4.57 4.57 0 0 1 2.032-1.929 4.5 4.5 0 0 1 1.886-.471c.852-.041 1.7.147 2.455.544a.9.9 0 0 0 .356.056h.043q.91.008 1.693-.018"/><path fill="#A3C844" d="M18.129 13.243a.5.5 0 0 0-.043-.206 2.13 2.13 0 0 0-1.003-.994 3.4 3.4 0 0 0-.943-.3 7.4 7.4 0 0 0-2.143-.069q-.282.036-.557.107.002.013.017.013l.077.022.077.021c.806.154 1.586.326 2.332.527a2.48 2.48 0 0 1 1.431.879c.13.196.227.414.283.643q-.012.159-.274.3-.405.21-.887.351l-.429.124a7 7 0 0 1-1.046.107 2.3 2.3 0 0 1-.433-.03.13.13 0 0 0-.107.022q-.013-.02-.047-.026a4.3 4.3 0 0 1-1.727-.583 3.34 3.34 0 0 1-1.239-1.285 6.6 6.6 0 0 1-.728-2.323 1.2 1.2 0 0 1 0-.249c.004-.03.026-.047.056-.047.051 0 .094 0 .133.017a5.5 5.5 0 0 0 2.057.279q.527-.033 1.05-.116l.218-.039q1.003-.167 1.505-.205c.388-.034.779-.002 1.157.094a2.36 2.36 0 0 1 1.714 1.509c.189.484.257 1.11.214 1.877q-.03.55-.214 1.114c0 .021-.017.034-.039.034l-.42-.008c-.004 0-.008 0-.008-.009.128-.613.128-1.127-.009-1.543q0-.013-.013-.013h-.012zm-5.396-1.449.407-.098c.09-.022.184-.043.283-.078q.14-.051.3-.077.525-.091.934-.085l.724.012q.404.012.918.108.641.122 1.135.437a2.06 2.06 0 0 1 .986 1.513l.021.154q.029.116.03.231c0 .09-.008.172-.021.257a3 3 0 0 0-.03.253c0 .082-.013.163-.022.249q0 .03.03.03h.026a.09.09 0 0 0 .052-.06q.084-.361.137-.652.04-.21.034-.402v-.24c0-.348-.021-.613-.051-.789a3.4 3.4 0 0 0-.275-.939 2.21 2.21 0 0 0-1.555-1.165 4 4 0 0 0-.485-.077 5.5 5.5 0 0 0-1.478.102c-.137.022-.274.043-.416.073q-.476.092-1.016.15a6 6 0 0 1-.634.026h-.283a3.5 3.5 0 0 1-.626-.043 7 7 0 0 1-.617-.116 1 1 0 0 1-.244-.081q-.044-.013-.043.026a1 1 0 0 0 .013.317l.03.128q.11.518.287 1.016.195.51.472.977l.077.129q.07.117.167.214l.343.343c.081.081.171.154.283.227l.351.214c.3.163.617.288.943.36q.382.091.771.129.39.036.78-.004a5.4 5.4 0 0 0 1.895-.549q.109-.057.077-.167a1.42 1.42 0 0 0-.57-.81 2.3 2.3 0 0 0-.69-.377 6 6 0 0 0-.48-.159 39 39 0 0 0-1.787-.407l-.592-.128a12 12 0 0 0-.587-.138q-.076-.013 0-.034z"/><path fill="#AFD834" d="M12.733 11.794q-.064.02 0 .035l.591.132c.215.052.416.1.592.133.6.125 1.191.258 1.787.408.086.02.244.077.48.158a2.3 2.3 0 0 1 1.101.814q.096.154.159.373.031.11-.077.167c-.596.3-1.243.486-1.907.549q-.322.041-.772.004a6 6 0 0 1-.771-.128c-.463-.105-.9-.3-1.286-.575a2 2 0 0 1-.287-.227L12 13.294a1 1 0 0 1-.167-.214l-.077-.129-.112-.18a6.3 6.3 0 0 1-.647-1.812l-.03-.129a1 1 0 0 1-.017-.317c0-.026.017-.034.043-.026.085.039.167.065.248.086q.284.065.617.111c.215.035.43.048.626.043h.283q.42 0 .634-.026c.36-.038.699-.085 1.016-.15q.5-.1 1.007-.158.444-.045.887-.017c.129.013.288.038.485.077a2.25 2.25 0 0 1 1.555 1.166q.167.321.275.938c.03.176.047.442.051.789v.24c0 .128-.008.261-.034.403q-.053.29-.137.651a.08.08 0 0 1-.052.056.1.1 0 0 1-.026.004q-.03.002-.03-.03l.022-.248c.004-.082.017-.163.03-.258a1.5 1.5 0 0 0-.03-.643l-.026-.162a2.06 2.06 0 0 0-.955-1.346 3.2 3.2 0 0 0-1.14-.441 6 6 0 0 0-.918-.108l-.724-.017q-.41.001-.934.086a2 2 0 0 0-.3.081l-.283.077-.407.1z"/><path fill="#86B22B" d="M18.129 13.243c0 .021 0 .043-.009.068a5 5 0 0 1-.214.695.43.43 0 0 1-.129-.202.4.4 0 0 0-.133-.184q-.02-.014-.034-.009c-.013 0-.017.018-.021.039l-.03-.069a2 2 0 0 0-.185-.338 2.48 2.48 0 0 0-1.431-.879q-1.195-.318-2.409-.548l-.077-.022q-.013 0-.013-.013v-.008l.009-.009.214-.038.335-.052a7.4 7.4 0 0 1 2.142.073c.36.064.678.163.943.3.434.208.785.557.994.99a.4.4 0 0 1 .048.202z"/><path fill="#619614" d="m17.901 14.006-.223.514a4.6 4.6 0 0 1-1.898.57.02.02 0 0 1-.021-.017c0-.013 0-.022.008-.026q.192-.16.3-.386l.429-.124q.482-.137.887-.352.258-.14.274-.3a.6.6 0 0 0-.069-.235q.002-.031.022-.043c.009 0 .021 0 .034.013a.4.4 0 0 1 .129.184.5.5 0 0 0 .128.201"/></g><defs><clipPath id="a"><path fill="#fff" d="M0 0h24v24H0z"/></clipPath></defs></svg>
